X: 1
T:Jackie Coleman's
R:reel
M:4/4
L:1/8
K:Dmaj
AFFF EFDE|FFAF BFAF|EEBE dEBE|ABde fedB|
AFFF EFDE|FFAF BFAF|EEBE dEBE|ABde fdd2:|
|:fddc dfag|fddc dfaf|eAAA eAfA|eAAA efge|
fddc dfag|fddc dfaf|~g3f gbag|faeg fdd2:|
